X:1
T:Beautiful Land of Rest
T:Beautiful Land of Rest
T:Robert Lowry
T:Anonymous, 1864
T:Public Domain Courtesy of the Cyber Hymnal™
T:Public Domain Courtesy of the Cyber Hymnal™
C:Robert Lowry
Z:Public Domain
Z:Courtesy of the Cyber Hymnal™
%%score ( 1 2 ) ( 3 4 )
L:1/8
Q:1/4=103
M:6/8
K:Eb
V:1 treble 
V:2 treble 
V:3 bass 
V:4 bass 
V:1
 E | E2 E (EF)[EG] | [GB]2 [Ac] [GB]3 | EEE [DF]2 [EG] | [DF]3- [DF]2 E | E2 E (EF)[EG] | %6
w: 1.~Je-|ru- sa- lem, * for|ev- er bright—|Beau- ti- ful land of|rest, * No|win- ter there, * nor|
w: 2.~Je-|ru- sa- lem, * for|ev- er free—|Beau- ti- ful land of|rest! * The|soul’s sweet home * of|
w: 3.~Je-|ru- sa- lem, * for|ev- er dear—|Beau- ti- ful land of|rest! * Thy|pearl- y gates * al-|
 [GB]2 [Ac] [GB]3 | [DF][DF][DF] [EG]2 [DF] | E3- E2 [EB] | [Ec]2 [Ec] [Ec]2 [Ee] | %10
w: chill of night—|Beau- ti- ful land of|rest! * The|drip- ping cloud is|
w: li- ber- ty—|Beau- ti- ful land of|rest! * The|gyves of sin, the|
w: most ap- pear—|Beau- ti- ful land of|rest! * And|when we tread thy|
 [GB]2 [GB] [GB]2 [EG] | [DF]2 [DF] ([DG]E)[DF] | [EG]2 [FA] !fermata![GB]2 [GB] | %13
w: chased a- way, The|sun breaks forth * in|end- less day— Je-|
w: chains of woe, The|ran- somed there * will|ne- ver know, Je-|
w: love- ly shore, We’ll|sing the song * we’ve|sung be- fore— Je-|
 [Ec]2 [Ec] [Ec]2 [Ee] | [GB]2 [Ac] [GB]2 [EG] | [DF][DF][DF] [EG]2 [DF] | E6 || %17
w: ru- sa- lem, Je-|ru- sa- lem, The|beau- ti- ful land of|rest.|
w: ru- sa- lem, Je-|ru- sa- lem, The|beau- ti- ful land of|rest.|
w: ru- sa- lem, Je-|ru- sa- lem, The|beau- ti- ful land of|rest.|
"^Refrain" [GB][GB][GB] [Ac]3 | [GB][GB][GB] [EG]3 | [DF][DF][DF] [DB]2 [FA] | [EG]3- [EG]2 z | %21
w: ||||
w: Beau- ti- ful land,|beau- ti- ful land,|Beau- ti- ful land of|rest; *|
w: ||||
 [GB][GB][GB] [Ac]3 | [Ad][Ac][Ad] !fermata![Ge]3 | [GB][GB][GB] !fermata![Ac]2 [DB] | E3- E2 |] %25
w: ||||
w: Beau- ti- ful land,|beau- ti- ful land,|Beau- ti- ful land of|rest. *|
w: ||||
V:2
 E | E2 E E2 x | x6 | EEE x3 | x5 E | E2 E E2 x | x6 | x6 | E3- E2 x | x6 | x6 | x6 | x6 | x6 | %14
 x6 | x6 | E6 || x6 | x6 | x6 | x6 | x6 | x6 | x6 | E3- E2 |] %25
V:3
 z | z6 | z6 | [E,G,][E,G,][E,G,] [B,,B,]2 [B,,B,] | [B,,B,]3- [B,,B,]2 z | z6 | z6 | %7
 [B,,B,][B,,B,][B,,B,] [B,,B,]2 [B,,A,] | [E,G,]3- [E,G,]2 [E,G,] | A,2 A, [A,,A,]2 [C,A,] | %10
 [E,B,]2 [E,B,] [E,B,]2 [E,B,] | [B,,B,]2 [B,,B,] (B,G,)[B,,B,] | %12
 [E,B,]2 [E,B,] !fermata![E,B,]2 [E,B,] | A,2 A, A,2 [C,A,] | [E,B,]2 [E,E] [E,E]2 [E,B,] | %15
 [B,,B,][B,,B,][B,,B,] [B,,B,]2 [B,,A,] | [E,G,]6 || [E,E][E,E][E,E] [E,E]3 | %18
 [E,E][E,B,][E,B,] [E,B,]3 | [B,,B,][B,,B,][B,,B,] [B,,B,]2 [B,,B,] | [E,B,]3- [E,B,]2 z | %21
 [E,E][E,E][E,E] [E,E]3 | [F,B,][F,B,][F,B,] !fermata![E,B,]3 | %23
 [E,E][E,E][E,E] !fermata![A,,E]2 [B,,B,] | [E,G,]3- [E,G,]2 |] %25
V:4
 x | x6 | x6 | x6 | x6 | x6 | x6 | x6 | x6 | A,2 A, x3 | x6 | x3 B,,2 x | x6 | A,2 A, A,2 x | x6 | %15
 x6 | x6 || x6 | x6 | x6 | x6 | x6 | x6 | x6 | x5 |] %25

